X:8
T:Schottis fr{\aa}n Lima
R:schottis
H:\"Aven i Am
A:Lima, Dalarna
Z:hn-schottis-8
M:C|
K:Dm
A=B^cd e2ef|d2de ^c2^c2|A=B^cd e2ef|(3gagfg a4|
A=B^cd e2ef|d2de ^c2^c2|defg age^c|dfe^c d4:|
|:agef g2g2|afde f2f2|e^cA^c e^cA^c|defg a4|
agef g2g2|afde f2f2|e^cA^c e^cA^c|dfe^c d4:|
<end>
<start>
